assets/clients/gtt.svg

<svg width="75" height="36" viewBox="0 0 75 36" fill="none" xmlns="http://www.w3.org/2000/svg">
    <path d="M59.603 0.757812H55.743V6.74224H53.6829V9.83059H55.743V22.6733C55.767 23.7625 56.1618 24.693 56.9266 25.4663C57.6794 26.2191 58.5721 26.6225 59.603 26.6757C59.6562 26.6826 59.7077 26.6869 59.7575 26.6886H62.5634V23.0853H61.0441C60.6579 23.0767 60.3188 22.9308 60.0279 22.6475C59.7532 22.3728 59.6124 22.0381 59.603 21.6432V9.83059H62.5634V6.74224H59.603V0.757812ZM35.3846 8.64607C34.0979 9.88209 33.4335 11.3705 33.3906 13.1121V20.499C33.4335 22.2312 34.0979 23.7119 35.3846 24.9384C36.7236 26.2174 38.3407 26.856 40.2368 26.856C42.1415 26.856 43.7544 26.2165 45.0754 24.9384C45.2058 24.8157 45.3303 24.6869 45.4488 24.5522V26.6371C45.423 27.8989 44.9595 28.9753 44.0582 29.8671C43.835 30.0989 43.5999 30.3006 43.3509 30.4722C42.5784 30.9958 41.6995 31.2568 40.7124 31.2568C39.4085 31.2568 38.2935 30.7933 37.3665 29.8671C37.2058 29.7052 37.0555 29.5332 36.9167 29.3521L33.879 31.7332L33.9305 31.7975C34.1523 32.0719 34.3887 32.334 34.6387 32.5829C36.3022 34.2541 38.3184 35.0919 40.6858 35.0919C42.4737 35.0919 44.0608 34.6155 45.4479 33.6636C45.9091 33.3433 46.3398 32.9813 46.7346 32.5821C48.3551 30.9615 49.1912 29.0139 49.2435 26.7401V6.74224H45.4479V9.01945C45.3269 8.89156 45.2024 8.76705 45.0745 8.64607C43.7526 7.37656 42.1407 6.74224 40.236 6.74224C38.339 6.74224 36.7227 7.37742 35.3837 8.64607H35.3846ZM37.2129 14.476C37.2369 13.3867 37.636 12.452 38.4094 11.6709C39.2163 10.8726 40.1896 10.4735 41.3304 10.4735C42.472 10.4735 43.4411 10.8726 44.2385 11.6709C45.0196 12.452 45.423 13.3876 45.4488 14.476V19.1343C45.423 20.2321 45.0196 21.1668 44.2385 21.9402C43.4402 22.7471 42.4711 23.1496 41.3304 23.1496C40.1888 23.1496 39.2154 22.7462 38.4094 21.9394C37.6369 21.1668 37.2369 20.2312 37.212 19.1343V14.476H37.2129ZM74.3391 6.74224H71.3796V0.757812H67.5187V6.74224H65.4595V9.83059H67.5187V22.6733C67.5444 23.7634 67.9393 24.6938 68.7032 25.4663C69.4577 26.2217 70.3495 26.6285 71.3796 26.6886H74.3391V23.0853H72.8199C72.4336 23.0767 72.0954 22.9308 71.8036 22.6475C71.5289 22.3728 71.3881 22.0381 71.3796 21.6432V9.83059H74.3391V6.74224Z" fill="#BFBEBE"/>
    <path d="M13.5853 6.35645L11.6935 8.26027L18.6298 15.2352H0.150391V18.0017H18.4882L11.6557 24.8737L13.5467 26.7655L23.7267 16.5477L13.5853 6.35645Z" fill="#BFBEBE"/>
</svg>

<svg width="75" height="36" fill="none" xmlns="http://www.w3.org/2000/svg"><path d="M59.603.758h-3.86v5.984h-2.06v3.089h2.06v12.842a3.96 3.96 0 0 0 1.184 2.793c.752.753 1.645 1.156 2.676 1.21.053.007.105.01.154.013h2.806v-3.604h-1.519a1.461 1.461 0 0 1-1.016-.438 1.416 1.416 0 0 1-.425-1.004V9.831h2.96V6.742h-2.96V.758ZM35.385 8.646c-1.287 1.236-1.951 2.724-1.994 4.466V20.5c.043 1.732.707 3.213 1.994 4.44 1.339 1.278 2.956 1.917 4.852 1.917 1.904 0 3.517-.64 4.838-1.918.13-.122.255-.251.374-.386v2.085c-.026 1.262-.49 2.338-1.39 3.23a4.63 4.63 0 0 1-.708.605c-.773.524-1.651.785-2.639.785-1.304 0-2.419-.464-3.346-1.39a5.357 5.357 0 0 1-.45-.515l-3.037 2.381.052.064c.221.275.458.537.708.786 1.663 1.671 3.68 2.509 6.047 2.509 1.788 0 3.375-.477 4.762-1.428.461-.32.892-.683 1.287-1.082 1.62-1.62 2.456-3.568 2.508-5.842V6.742h-3.795V9.02a9.52 9.52 0 0 0-.373-.373c-1.322-1.27-2.934-1.904-4.839-1.904-1.897 0-3.513.635-4.852 1.904Zm1.828 5.83c.024-1.09.423-2.024 1.196-2.805.807-.798 1.78-1.197 2.921-1.197 1.142 0 2.111.399 2.909 1.197.78.781 1.184 1.717 1.21 2.805v4.658a3.94 3.94 0 0 1-1.21 2.806c-.799.807-1.768 1.21-2.909 1.21-1.141 0-2.115-.404-2.92-1.21a3.958 3.958 0 0 1-1.198-2.806v-4.658Zm37.126-7.734h-2.96V.758h-3.86v5.984h-2.06v3.089h2.06v12.842c.025 1.09.42 2.02 1.184 2.793.755.756 1.647 1.162 2.677 1.223h2.96v-3.604h-1.52a1.463 1.463 0 0 1-1.016-.438 1.411 1.411 0 0 1-.424-1.004V9.831h2.96V6.742ZM13.585 6.356 11.693 8.26l6.937 6.975H.15v2.767h18.338l-6.832 6.872 1.89 1.892 10.18-10.218-10.14-10.192Z" fill="#BFBEBE"/></svg>
